Newaita-dark/.DP/24/network-wireless-signal-low.svg

<?xml version="1.0" encoding="UTF-8"?>
<svg xmlns="http://www.w3.org/2000/svg" xmlns:xlink="http://www.w3.org/1999/xlink" width="24pt" height="24pt" viewBox="0 0 24 24" version="1.1">
<g id="surface1">
<path style=" stroke:none;fill-rule:nonzero;fill:rgb(74.117649%,74.117649%,74.117649%);fill-opacity:1;" d="M 11.90625 15.195312 C 10.453125 15.195312 9.148438 15.816406 8.242188 16.808594 L 10.882812 20.652344 C 11.410156 21.148438 12.402344 21.148438 12.929688 20.652344 L 15.574219 16.808594 C 14.667969 15.816406 13.363281 15.195312 11.90625 15.195312 Z M 11.90625 15.195312 "/>
<path style=" stroke:none;fill-rule:nonzero;fill:rgb(74.117649%,74.117649%,74.117649%);fill-opacity:0.392157;" d="M 11.90625 3.289062 C 7.945312 3.289062 4.308594 4.640625 1.4375 6.910156 L 3.128906 9.375 C 5.519531 7.429688 8.570312 6.265625 11.90625 6.265625 C 15.242188 6.265625 18.296875 7.429688 20.683594 9.375 L 22.378906 6.910156 C 19.503906 4.640625 15.871094 3.289062 11.90625 3.289062 Z M 11.90625 3.289062 "/>
<path style=" stroke:none;fill-rule:nonzero;fill:rgb(74.117649%,74.117649%,74.117649%);fill-opacity:0.392157;" d="M 11.90625 9.242188 C 9.199219 9.242188 6.726562 10.21875 4.824219 11.839844 L 6.523438 14.3125 C 7.9375 13.011719 9.828125 12.21875 11.90625 12.21875 C 13.988281 12.21875 15.878906 13.011719 17.289062 14.3125 L 18.992188 11.839844 C 17.085938 10.21875 14.613281 9.242188 11.90625 9.242188 Z M 11.90625 9.242188 "/>
</g>
</svg>

<svg xmlns="http://www.w3.org/2000/svg" width="32" height="32" viewBox="0 0 24 24"><g fill="#bdbdbd"><path d="M11.906 15.195a4.945 4.945 0 0 0-3.664 1.614l2.64 3.843c.528.496 1.52.496 2.048 0l2.644-3.843a4.947 4.947 0 0 0-3.668-1.614zm0 0"/><path d="M11.906 3.29c-3.96 0-7.597 1.35-10.469 3.62L3.13 9.375a13.846 13.846 0 0 1 8.777-3.11c3.336 0 6.39 1.165 8.778 3.11l1.695-2.465a16.828 16.828 0 0 0-10.473-3.62zm0 0" fill-opacity=".392"/><path d="M11.906 9.242c-2.707 0-5.18.977-7.082 2.598l1.7 2.473a7.922 7.922 0 0 1 5.382-2.094c2.082 0 3.973.793 5.383 2.094l1.703-2.473a10.895 10.895 0 0 0-7.086-2.598zm0 0" fill-opacity=".392"/></g></svg>
